packages/icons/src/other-workload.svg

<svg viewBox="0 0 16 4" xmlns="http://www.w3.org/2000/svg"><path d="m2.72.08c-1.056 0-1.92.864-1.92 1.92s.864 1.92 1.92 1.92 1.92-.864 1.92-1.92-.864-1.92-1.92-1.92zm0 3.2c-.704 0-1.28-.576-1.28-1.28s.576-1.28 1.28-1.28 1.28.576 1.28 1.28-.576 1.28-1.28 1.28zm10.56-3.2c-1.056 0-1.92.864-1.92 1.92s.864 1.92 1.92 1.92 1.92-.864 1.92-1.92-.864-1.92-1.92-1.92zm0 3.2c-.704 0-1.28-.576-1.28-1.28s.576-1.28 1.28-1.28 1.28.576 1.28 1.28-.576 1.28-1.28 1.28zm-5.28-3.2c-1.056 0-1.92.864-1.92 1.92s.864 1.92 1.92 1.92 1.92-.864 1.92-1.92-.864-1.92-1.92-1.92zm0 3.2c-.704 0-1.28-.576-1.28-1.28s.576-1.28 1.28-1.28 1.28.576 1.28 1.28-.576 1.28-1.28 1.28z" fill="#25a6f7"/></svg>

<svg viewBox="0 0 16 4" xmlns="http://www.w3.org/2000/svg"><path d="M2.72.08C1.664.08.8.944.8 2s.864 1.92 1.92 1.92S4.64 3.056 4.64 2 3.776.08 2.72.08zm0 3.2c-.704 0-1.28-.576-1.28-1.28 0-.704.576-1.28 1.28-1.28C3.424.72 4 1.296 4 2c0 .704-.576 1.28-1.28 1.28zM13.28.08c-1.056 0-1.92.864-1.92 1.92s.864 1.92 1.92 1.92S15.2 3.056 15.2 2 14.336.08 13.28.08zm0 3.2C12.576 3.28 12 2.704 12 2c0-.704.576-1.28 1.28-1.28.704 0 1.28.576 1.28 1.28 0 .704-.576 1.28-1.28 1.28zM8 .08C6.944.08 6.08.944 6.08 2S6.944 3.92 8 3.92 9.92 3.056 9.92 2 9.056.08 8 .08zm0 3.2c-.704 0-1.28-.576-1.28-1.28 0-.704.576-1.28 1.28-1.28.704 0 1.28.576 1.28 1.28 0 .704-.576 1.28-1.28 1.28z" fill="#25A6F7" fill-rule="nonzero"/></svg>
